X: 11815
T: Ellie Goes West
R: hornpipe
M: 4/4
K: Emajor
EA/B/ ef a>g e3/2 z/|AG eF/G/ FB de|EA/B/ ef a>g e3/2 z/|A>G eF/G/ F3/2-F z/ A/G/|
EB ef ag b3/2 z/|AA/B/ eF/G/ FB de/e/|e<c BE FB GG/E/|AG/B/ cG/F/ F3/2-F z/ F/E/|
E2/B2/ e2/f2/ a2/>g2/ e2/e//f//g//a//|b-b/a/ a>g ff/e/ g3/2 z/|EA/B/ ez/f/ ag e3/2 z/|
AA/B/ ee/f/ f3 z|EA/B/ ef/e/ ag<b z|AB eF/G/ FB de|c z BE FF/B/ GG/E/|AB de/f/ f4|
z c ag- gg/b/ fe|z A/B/ ag- gg/f/ ff/e/|AB/c/ ag be fz/b/|f>g bd dc a/b/a-|
a/z/z//A//B//c// a2/g2/ g2/g/f/ f2/f/g/|z2/ A/B/ a2/g2/ g-g//f//e//c// f2/e2/|AB/c/ ag be fz/g/|
b-b/a/ a-a/g/ f4|ef/g/ gd d2 ce|eA A>G eg gd|d z ce e/fg/ g3/2 z/|
B/c/c/A/ ag/f/ f/e/e ef/g/|g-g//g//a//b// a> z B/c/c/A/ ag/ z/|f/e/e/ z/ F/G/e/ z/ Fd B2|

